lib/healthicons/icons/solid/symbols/un_paved_road.svg

<svg fill="none" height="48" viewBox="0 0 48 48" width="48" xmlns="http://www.w3.org/2000/svg"><g fill="#333"><path d="m42 7.5c0 .82843-.6716 1.5-1.5 1.5s-1.5-.67157-1.5-1.5.6716-1.5 1.5-1.5 1.5.67157 1.5 1.5z"/><path d="m42 12.5c0 .8284-.6716 1.5-1.5 1.5s-1.5-.6716-1.5-1.5.6716-1.5 1.5-1.5 1.5.6716 1.5 1.5z"/><path d="m42 17.5c0 .8284-.6716 1.5-1.5 1.5s-1.5-.6716-1.5-1.5.6716-1.5 1.5-1.5 1.5.6716 1.5 1.5z"/><path d="m41.5 21.3496c0 .5523-.4477 1-1 1s-1-.4477-1-1 .4477-1 1-1 1 .4477 1 1z"/><path d="m36.6868 7.92226c.1161.82025-.4547 1.57934-1.2749 1.69548-.8203.11615-1.5794-.45464-1.6955-1.27489-.1161-.82024.4546-1.57934 1.2749-1.69548.8202-.11614 1.5793.45465 1.6955 1.27489z"/><path d="m37.3879 12.8727c.1162.8202-.4546 1.5793-1.2749 1.6955-.8202.1161-1.5793-.4547-1.6954-1.2749-.1162-.8203.4546-1.5793 1.2749-1.6955.8202-.1161 1.5793.4547 1.6954 1.2749z"/><path d="m38.0889 17.8234c.1161.8202-.4547 1.5793-1.2749 1.6955-.8203.1161-1.5794-.4547-1.6955-1.2749-.1161-.8203.4546-1.5794 1.2749-1.6955.8202-.1161 1.5793.4546 1.6955 1.2749z"/><path d="m38.79 22.7741c.1162.8202-.4546 1.5793-1.2749 1.6954-.8202.1162-1.5793-.4546-1.6954-1.2748-.1162-.8203.4546-1.5794 1.2749-1.6955.8202-.1162 1.5793.4546 1.6954 1.2749z"/><path d="m30.0448 9.63063c.3396.75567.0024 1.64347-.7533 1.98307-.7556.3396-1.6434.0023-1.983-.7533-.3396-.7557-.0023-1.6435.7533-1.98309.7556-.33958 1.6435-.00231 1.983.75332z"/><path d="m32.0947 14.1912c.3395.7556.0023 1.6434-.7534 1.983-.7556.3396-1.6434.0023-1.983-.7533s-.0023-1.6435.7533-1.983c.7556-.3396 1.6435-.0024 1.9831.7533z"/><path d="m34.1442 18.7517c.3396.7556.0023 1.6435-.7533 1.9831s-1.6435.0023-1.9831-.7533c-.3395-.7557-.0023-1.6435.7534-1.9831.7556-.3396 1.6434-.0023 1.983.7533z"/><path d="m35.0767 22.2661c.2264.5038.0015 1.0957-.5022 1.3221-.5038.2264-1.0957.0015-1.3221-.5022-.2263-.5038-.0015-1.0957.5023-1.3221.5037-.2264 1.0956-.0015 1.322.5022z"/><path d="m23.0252 12.9107c.5384.6297.4644 1.5765-.1653 2.1149-.6296.5384-1.5765.4643-2.1148-.1653-.5384-.6297-.4644-1.5765.1652-2.1149.6297-.5383 1.5766-.4643 2.1149.1653z"/><path d="m26.6485 16.6817c.5384.6297.4644 1.5765-.1653 2.1149-.6296.5384-1.5765.4643-2.1149-.1653-.5383-.6297-.4643-1.5765.1653-2.1149.6297-.5383 1.5765-.4643 2.1149.1653z"/><path d="m29.8978 20.482c.5383.6297.4643 1.5765-.1653 2.1149-.6297.5383-1.5765.4643-2.1149-.1653-.5384-.6297-.4643-1.5765.1653-2.1149.6297-.5383 1.5765-.4643 2.1149.1653z"/><path d="m33.147 24.2823c.5384.6297.4644 1.5765-.1653 2.1149-.6296.5383-1.5765.4643-2.1148-.1653-.5384-.6297-.4644-1.5765.1653-2.1149.6296-.5384 1.5765-.4643 2.1148.1653z"/><path d="m27.5616 13.6911c0 .4794-.3887.868-.8681.868s-.8681-.3886-.8681-.868c0-.4795.3887-.8681.8681-.8681s.8681.3886.8681.8681z"/><path d="m30.1546 18.0338c0 .4795-.3886.8681-.8681.8681-.4794 0-.868-.3886-.868-.8681 0-.4794.3886-.868.868-.868.4795 0 .8681.3886.8681.868z"/><path d="m34.5787 15.9211c0 .4794-.3887.868-.8681.868s-.8681-.3886-.8681-.868c0-.4795.3887-.8681.8681-.8681s.8681.3886.8681.8681z"/><path d="m39.3343 15.1322c0 .4795-.3887.8681-.8681.8681s-.8681-.3886-.8681-.8681c0-.4794.3887-.868.8681-.868s.8681.3886.8681.868z"/><path d="m33.5777 11.3605c0 .4794-.3887.8681-.8681.8681s-.868-.3887-.868-.8681.3886-.8681.868-.8681.8681.3887.8681.8681z"/><path d="m39.0001 10.1317c0 .4795-.3887.8681-.8681.8681s-.8681-.3886-.8681-.8681c0-.47938.3887-.86803.8681-.86803s.8681.38865.8681.86803z"/><path clip-rule="evenodd" d="m20.7263 12.9585c-1.4801 1.0842-2.8786 2.2825-4.182 3.5859-3.3429 3.3429-5.9946 7.3115-7.80381 11.6792-1.55373 3.7511-2.45989 7.7334-2.6848 11.7776-.06133 1.1029.83989 1.9991 1.94446 1.9991h13.99995c1.1046 0 1.9886-.8982 2.111-1.9959.1873-1.6786.6103-3.3259 1.2592-4.8925.9046-2.1838 2.2305-4.1681 3.9019-5.8396 1.0104-1.0103 2.135-1.8943 3.3489-2.6354-3.8161-4.4466-8.6199-10.0019-11.8948-13.6784zm4.3695 8.7817-.7233.6905c-.5413.5167-1.0619 1.0576-1.5606 1.6208l-.663.7487-1.4973-1.326.663-.7486c.5353-.6045 1.0946-1.1857 1.6768-1.7415l.7233-.6906zm-4.4525 5.0686-.535.8449c-.799 1.2619-1.5064 2.5952-2.1144 3.9862l-.4005.9163-1.8326-.8011.4005-.9163c.6481-1.4827 1.4031-2.9061 2.2573-4.2551l.5349-.8448zm-3.8865 8.128-.262.9651c-.1967.7245-.3681 1.4594-.5132 2.2028l-.1916.9815-1.963-.3833.1916-.9814c.1544-.7908.3367-1.5725.546-2.3436l.262-.965z" fill-rule="evenodd"/></g></svg>

<svg width="48" height="48" viewBox="0 0 48 48" fill="none" xmlns="http://www.w3.org/2000/svg">
<path d="M40.5 9C41.3284 9 42 8.32843 42 7.5C42 6.67157 41.3284 6 40.5 6C39.6716 6 39 6.67157 39 7.5C39 8.32843 39.6716 9 40.5 9Z" fill="#333333"/>
<path d="M40.5 14C41.3284 14 42 13.3284 42 12.5C42 11.6716 41.3284 11 40.5 11C39.6716 11 39 11.6716 39 12.5C39 13.3284 39.6716 14 40.5 14Z" fill="#333333"/>
<path d="M42 17.5C42 18.3284 41.3284 19 40.5 19C39.6716 19 39 18.3284 39 17.5C39 16.6716 39.6716 16 40.5 16C41.3284 16 42 16.6716 42 17.5Z" fill="#333333"/>
<path d="M40.5 22.3496C41.0523 22.3496 41.5 21.9019 41.5 21.3496C41.5 20.7973 41.0523 20.3496 40.5 20.3496C39.9477 20.3496 39.5 20.7973 39.5 21.3496C39.5 21.9019 39.9477 22.3496 40.5 22.3496Z" fill="#333333"/>
<path d="M36.6868 7.92226C36.8029 8.74251 36.2321 9.5016 35.4119 9.61774C34.5916 9.73389 33.8325 9.1631 33.7164 8.34285C33.6003 7.52261 34.171 6.76351 34.9913 6.64737C35.8115 6.53123 36.5706 7.10202 36.6868 7.92226Z" fill="#333333"/>
<path d="M36.113 14.5683C36.9333 14.4522 37.5041 13.6931 37.3879 12.8728C37.2718 12.0526 36.5127 11.4818 35.6925 11.5979C34.8722 11.7141 34.3014 12.4732 34.4176 13.2934C34.5337 14.1137 35.2928 14.6844 36.113 14.5683Z" fill="#333333"/>
<path d="M38.0889 17.8235C38.205 18.6438 37.6342 19.4028 36.814 19.519C35.9937 19.6351 35.2346 19.0643 35.1185 18.2441C35.0024 17.4239 35.5731 16.6648 36.3934 16.5486C37.2136 16.4325 37.9727 17.0033 38.0889 17.8235Z" fill="#333333"/>
<path d="M37.5151 24.4695C38.3354 24.3534 38.9062 23.5943 38.79 22.7741C38.6739 21.9538 37.9148 21.383 37.0946 21.4992C36.2743 21.6153 35.7035 22.3744 35.8197 23.1947C35.9358 24.0149 36.6949 24.5857 37.5151 24.4695Z" fill="#333333"/>
<path d="M30.0448 9.63063C30.3844 10.3863 30.0472 11.2741 29.2915 11.6137C28.5359 11.9533 27.6481 11.616 27.3085 10.8604C26.9689 10.1047 27.3062 9.2169 28.0618 8.87731C28.8174 8.53773 29.7053 8.875 30.0448 9.63063Z" fill="#333333"/>
<path d="M31.3413 16.1742C32.097 15.8346 32.4342 14.9468 32.0947 14.1912C31.7551 13.4355 30.8672 13.0983 30.1116 13.4379C29.356 13.7774 29.0187 14.6653 29.3583 15.4209C29.6979 16.1765 30.5857 16.5138 31.3413 16.1742Z" fill="#333333"/>
<path d="M34.1442 18.7517C34.4838 19.5073 34.1465 20.3952 33.3909 20.7348C32.6353 21.0744 31.7474 20.7371 31.4078 19.9815C31.0683 19.2258 31.4055 18.338 32.1612 17.9984C32.9168 17.6588 33.8046 17.9961 34.1442 18.7517Z" fill="#333333"/>
<path d="M34.5745 23.5883C35.0782 23.3619 35.3031 22.77 35.0767 22.2662C34.8503 21.7625 34.2584 21.5376 33.7547 21.764C33.2509 21.9904 33.0261 22.5823 33.2524 23.0861C33.4788 23.5898 34.0707 23.8147 34.5745 23.5883Z" fill="#333333"/>
<path fill-rule="evenodd" clip-rule="evenodd" d="M23.0252 12.9106C23.5636 13.5403 23.4896 14.4871 22.8599 15.0255C22.8007 15.0761 22.7387 15.1213 22.6745 15.1611C23.1688 15.7232 23.6816 16.3083 24.2071 16.9096C24.2903 16.7647 24.3993 16.6313 24.5336 16.5164C25.1633 15.9781 26.1101 16.0521 26.6485 16.6817C27.1869 17.3114 27.1129 18.2582 26.4832 18.7966C26.3564 18.905 26.2168 18.9886 26.0702 19.0478C26.5366 19.5844 27.0074 20.1271 27.4791 20.6717C27.5591 20.5415 27.6605 20.4214 27.7829 20.3167C28.4126 19.7784 29.3594 19.8524 29.8978 20.482C30.4361 21.1117 30.3621 22.0585 29.7325 22.5969C29.6145 22.6978 29.4853 22.7772 29.3498 22.8354C29.8188 23.379 30.2841 23.9188 30.7418 24.4505C30.8196 24.3286 30.9165 24.2159 31.0322 24.117C31.6618 23.5786 32.6087 23.6527 33.147 24.2823C33.6854 24.912 33.6114 25.8588 32.9817 26.3972C32.8682 26.4943 32.7443 26.5715 32.6144 26.629L32.6211 26.6369C31.4072 27.378 30.2826 28.262 29.2722 29.2723C27.6008 30.9438 26.2749 32.9281 25.3703 35.1119C24.7214 36.6785 24.2984 38.3258 24.1111 40.0044C23.9887 41.1021 23.1047 42.0003 22.0001 42.0003H8.00015C6.89558 42.0003 5.99436 41.1041 6.05569 40.0012C6.2806 35.957 7.18676 31.9747 8.74049 28.2236C10.5497 23.8559 13.2014 19.8873 16.5443 16.5444C17.8337 15.255 19.2162 14.0684 20.6788 12.9934C20.745 12.904 20.8222 12.8207 20.9103 12.7453C21.54 12.2069 22.4869 12.281 23.0252 12.9106ZM25.0958 21.7402L24.3725 22.4307C23.8312 22.9474 23.3106 23.4883 22.8119 24.0515L22.1489 24.8002L20.6516 23.4742L21.3146 22.7256C21.8499 22.1211 22.4092 21.5399 22.9914 20.9841L23.7147 20.2935L25.0958 21.7402ZM20.6433 26.8088L20.1083 27.6537C19.3093 28.9156 18.6019 30.2489 17.9939 31.6399L17.5934 32.5562L15.7608 31.7551L16.1613 30.8388C16.8094 29.3561 17.5644 27.9327 18.4186 26.5837L18.9535 25.7389L20.6433 26.8088ZM16.7568 34.9368L16.4948 35.9019C16.2981 36.6264 16.1267 37.3613 15.9816 38.1047L15.79 39.0862L13.827 38.7029L14.0186 37.7215C14.173 36.9307 14.3553 36.149 14.5646 35.3779L14.8266 34.4129L16.7568 34.9368Z" fill="#333333"/>
<path d="M27.5616 13.6911C27.5616 14.1705 27.1729 14.5591 26.6935 14.5591C26.2141 14.5591 25.8254 14.1705 25.8254 13.6911C25.8254 13.2116 26.2141 12.823 26.6935 12.823C27.1729 12.823 27.5616 13.2116 27.5616 13.6911Z" fill="#333333"/>
<path d="M29.2865 18.9019C29.766 18.9019 30.1546 18.5133 30.1546 18.0338C30.1546 17.5544 29.766 17.1658 29.2865 17.1658C28.8071 17.1658 28.4185 17.5544 28.4185 18.0338C28.4185 18.5133 28.8071 18.9019 29.2865 18.9019Z" fill="#333333"/>
<path d="M34.5787 15.9211C34.5787 16.4005 34.19 16.7891 33.7106 16.7891C33.2312 16.7891 32.8425 16.4005 32.8425 15.9211C32.8425 15.4416 33.2312 15.053 33.7106 15.053C34.19 15.053 34.5787 15.4416 34.5787 15.9211Z" fill="#333333"/>
<path d="M38.4662 16.0002C38.9456 16.0002 39.3343 15.6115 39.3343 15.1321C39.3343 14.6527 38.9456 14.264 38.4662 14.264C37.9868 14.264 37.5981 14.6527 37.5981 15.1321C37.5981 15.6115 37.9868 16.0002 38.4662 16.0002Z" fill="#333333"/>
<path d="M33.5777 11.3605C33.5777 11.8399 33.189 12.2286 32.7096 12.2286C32.2302 12.2286 31.8416 11.8399 31.8416 11.3605C31.8416 10.8811 32.2302 10.4924 32.7096 10.4924C33.189 10.4924 33.5777 10.8811 33.5777 11.3605Z" fill="#333333"/>
<path d="M38.132 10.9999C38.6114 10.9999 39.0001 10.6113 39.0001 10.1319C39.0001 9.65244 38.6114 9.26379 38.132 9.26379C37.6526 9.26379 37.2639 9.65244 37.2639 10.1319C37.2639 10.6113 37.6526 10.9999 38.132 10.9999Z" fill="#333333"/>
</svg>
